X: 20832
T: SADLER'S WELLS TUMBLING MINUET.
%R: minuet, waltz
B: W. Hamilton "Universal Tune-Book" Vol. 2 Glasgow 1846 p.83 #2
S: http://s3-eu-west-1.amazonaws.com/itma.dl.printmaterial/book_pdfs/hamiltonvol2web.pdf
Z: 2016 John Chambers <jc:trillian.mit.edu>
M: 3/4
L: 1/8
K: C
% - - - - - - - - - - - - - - - - - - - - - - - - -
|:\
e4f2 | d4e2 | G2c2d2 | edefe2 |\
e4f2 | d4e2 | G2c2d2 | e6 ::\
d2dddd | d2e2f2 | egfedc | dcBAG2 |\
d2dddd | d2e2f2 | e2fede | c6 :|
% - - - - - - - - - - - - - - - - - - - - - - - - -

%%sep 1 1 500
%%sep 1 1 500

